Origami/24x24/apps/lightworks.svg

<svg width="24" height="24" version="1" xmlns="http://www.w3.org/2000/svg">
 <path d="m2 21v0.5c0 0.554 0.446 1 1 1h18c0.554 0 1-0.446 1-1v-0.5c0 0.554-0.446 1-1 1h-18c-0.554 0-1-0.446-1-1z" style="opacity:.2"/>
 <path d="m7.9 2v20h13.1c0.554 0 1-0.446 1-1v-2.47776l-0.691728-0.907954 0.197494-14.03768c0.007793-0.5539452-0.328458-0.6027528-0.752883-0.9588139l-0.736409-0.6177924zm-5.283789 0.0761719c-0.0556867 0.0230711-0.1081808 0.0516886-0.1582032 0.0839844 0.0497941-0.0322866 0.1027251-0.0609109 0.1582032-0.0839844zm-0.1650391 0.0878906c-0.0521923 0.0342817-0.1007881 0.0739913-0.1455079 0.1171875 0.0447316-0.0435155 0.0932078-0.0826869 0.1455079-0.1171875zm-0.1455079 0.1171875c-0.0899482 0.086884-0.1625333 0.1910982-0.2148437 0.3066406 0.0519271-0.1156348 0.1253806-0.2196095 0.2148437-0.3066406zm-0.2148437 0.3066406c-0.05238 0.115696-0.082199 0.2424493-0.086914 0.3769532 0.00471-0.1342976 0.034987-0.2613183 0.086914-0.3769532zm-0.086914 0.3769532c-4.189e-4 0.0119494-0.0039063 0.0231011-0.0039063 0.0351562v0.071289c0-0.043025 0.0035-0.066034 0.0039063-0.1064452z" style="fill:#4f4f4f"/>
 <rect x="6.5" y="18.5" width="6" height="1" style="opacity:.2"/>
 <rect x="6.5" y="5.5" width="6" height="1" style="opacity:.2"/>
 <path d="M 3,2 C 2.4580551,2 2.0227375,2.4276534 2.0039063,2.9648438 2.0034977,3.0052547 2,3.0282642 2,3.071289 L 2,20.928711 2,21 c 0,0.554 0.446,1 1,1 L 3.0703125,22 8,22 l 0,-3 4.540039,0 0,-1 L 8,18 8,6 l 4.540039,0 0,-1 L 8,5 8,2 3.0703125,2 Z" style="fill:#858585"/>
 <path d="m2 3.5v-0.5c0-0.554 0.446-1 1-1h18c0.554 0 1 0.446 1 1v0.5c0-0.554-0.446-1-1-1h-18c-0.554 0-1 0.446-1 1z" style="fill:#ffffff;opacity:.1"/>
 <path d="m4 3.5v2h2v-2zm0 4v2h2v-2zm0 4v2h2v-2zm0 4v2h2v-2zm0 4v2h2v-2z" style="opacity:.2"/>
 <path d="m4 3v2h2v-2zm0 4v2h2v-2zm0 4v2h2v-2zm0 4v2h2v-2zm0 4v2h2v-2z" style="fill:#ffffff"/>
 <path d="m21.999738 12.425446c-2.032027 1.091373-4.051576 1.78629-5.797915 2.232114-0.07239 0.02174-0.153358 0.0498-0.223211 0.06975-2.292009 0.654612-3.910384 2.911513-3.910384 2.911513l-0.126951 1.134193c0.205672 0.08944 2.131774 0.878921 4.688135 0.0028 2.565002-0.879096 5.112477-4.338138 5.370326-4.694414z" style="fill-rule:evenodd"/>
 <path d="m18.901983 15.567844-0.207168 1.372749-1.016309-0.718461-0.04813 1.595961-1.334385-0.941673-0.191125 1.77174-1.445293-1.245101-0.413639 1.452967-1.143958-1.325318-0.682887 1.133495-0.588023-1.356706-0.504318 1.019797c0.06261 0.06683 0.127468 0.124098 0.191125 0.186939 0.15893 0.12319 0.34528 0.22949 0.34528 0.22949s2.065094 0.957845 4.76626 0.03209c1.370231-0.469616 2.723521-1.67039 3.737395-2.746197-0.03898-0.01529-0.07203-0.03298-0.114396-0.04673z" style="fill-rule:evenodd"/>
 <ellipse cx="18.472" cy="9.4" rx="1.371" ry="1.377" style="opacity:.2"/>
 <ellipse cx="17.843" cy="8.768" rx=".337" ry=".339" style="opacity:.2"/>
 <path d="m22 11.968567c-2.032027 1.091372-4.051838 1.786289-5.798177 2.232113-0.07239 0.02174-0.153358 0.0498-0.223211 0.06975-2.292009 0.654613-3.910384 3.011346-3.910384 3.011346l-0.126951 1.134193c0.205672 0.08944 2.131774 0.878921 4.688135 0.0028 2.565002-0.879093 5.112739-4.012493 5.370588-4.368769z" style="fill-rule:evenodd;fill:#3f3f3f"/>
 <path d="m19.492795 13.585214s-0.02777 0.0041-0.02791 0.0042c-4.96489 0.910437-8.475753 1.302502-8.475753 1.302502s-1.595191 0.514287-3.018237 0.211935l1.4229725 2.068845 0.449213-1.286953 0.9891055 1.422275 0.696141-1.467614 1.572942 1.557596 0.562214-1.782901 1.48296 1.422275 0.719159-1.941241 1.12373 1.218594 0.696141-1.782901 1.236033 0.857272 0.539194-1.70761z" style="fill-rule:evenodd;opacity:.2"/>
 <path d="m19.838867 2.500399c-0.782351 0.2537641-9.304739 3.1947505-12.617668 4.966797-3.4604874 1.8509725-3.3712693 2.5273025-2.9667967 3.520508 0.4044728 0.993204 1.4831237 1.671325 2.1123047 3.161133 0.6291775 1.489805 5.123047 1.351562 5.123047 1.351562s4.968228 0.0449 10.510246-2.93164v-9.06836c0-0.554-0.446-1-1-1zm2.161133 12s-4.325659 4.872262-8.532226 5c-0.894666 0.01539-1.684307-0.267284-2.141602-1.029297 0 0-0.359405 0.05613-0.291992 0.552734 0.344666 1.760792 3.31368 2.366434 4.040039 2.376164 1.641274-0.0048 3.893393-0.388061 6.925781-1.783203z" style="opacity:.2"/>
 <path d="m19.492795 13.085363s-0.02777 0.0042-0.02791 0.0042c-4.964885 0.910437-8.475748 1.302502-8.475748 1.302502s-1.595191 0.514287-3.018237 0.211935l1.4229725 2.068845 0.449213-1.286953 0.9891055 1.422275 0.696141-1.467614 1.572942 1.557596 0.562214-1.782901 1.48296 1.422275 0.719159-1.941241 1.12373 1.218595 0.696141-1.782901 1.236033 0.857271 0.539194-1.70761z" style="fill-rule:evenodd;fill:#ffffff"/>
 <path d="m18.901983 15.210796-0.207168 1.37275-1.016309-0.718462-0.04813 1.595962-1.334385-0.941673-0.191125 1.77174-1.445293-1.245101-0.413639 1.452967-1.143958-1.325318-0.682887 1.133495-0.588023-1.356706-0.504318 1.019797c0.06261 0.06683-0.160835 0.412401-0.09718 0.475242 0.15893 0.12319 0.05698 0.43542 0.05698 0.43542s2.930003 1.081405 5.631169 0.155644c1.370231-0.469616 2.723521-2.246997 3.737395-3.322804-0.03898-0.0153-0.360334-0.07417-0.402699-0.08792z" style="fill-rule:evenodd;fill:#ffffff"/>
 <path d="m19.838867 2c-0.782351 0.2537641-9.304739 3.1947505-12.617668 4.966797-3.4604874 1.8509725-3.3712693 2.5273025-2.9667967 3.520508 0.4044728 0.993204 1.4831237 1.671325 2.1123047 3.161133 0.6291775 1.489805 5.123047 1.351562 5.123047 1.351562s4.968228 0.0449 10.510246-2.93164v-9.06836c0-0.554-0.446-1-1-1zm2.161133 12s-4.325659 4.872262-8.532226 5c-0.894666 0.01539-1.684307-0.267284-2.141602-1.029297 0 0-0.359405 0.05613-0.291992 0.552734 0.344666 1.760792 3.31368 2.366434 4.040039 2.376164 1.641274-0.0048 3.893393-0.388061 6.925781-1.783203z" style="fill:#e7464c"/>
 <circle cx="18.5" cy="9.5" r="1.5" style="fill:#3f3f3f"/>
 <circle cx="18" cy="9.5" r=".5" style="fill:#f8fcf9"/>
 <path d="m19.838867 2c-0.782351 0.2537641-9.304739 3.1947505-12.617668 4.966797-2.8279148 1.512617-3.2749776 2.2413175-3.126953 2.9990235 0.1557369-0.612917 0.9144448-1.31558 3.126953-2.4990235 3.312929-1.7720465 11.835317-4.7130329 12.617668-4.966797h1.161133c0.554 0 1 0.446 1 1v-0.5c0-0.554-0.446-1-1-1z" style="fill:#ffffff;opacity:.1"/>
</svg>

<svg xmlns="http://www.w3.org/2000/svg" width="24" height="24" version="1">
 <path style="opacity:0.2" d="m 2,21 0,0.5 c 0,0.554 0.446,1 1,1 l 18,0 c 0.554,0 1,-0.446 1,-1 L 22,21 c 0,0.554 -0.446,1 -1,1 L 3,22 C 2.446,22 2,21.554 2,21 Z"/>
 <path style="fill:#4f4f4f" d="m 7.9,2 0,20 13.1,0 c 0.554,0 1,-0.446 1,-1 L 22,18.52224 21.308272,17.614286 21.505766,3.5766063 C 21.513559,3.0226611 21.177308,2.9738535 20.752883,2.6177924 L 20.016474,2 Z M 2.616211,2.0761719 C 2.5605243,2.099243 2.5080302,2.1278605 2.4580078,2.1601563 2.5078019,2.1278697 2.5607329,2.0992454 2.616211,2.0761719 Z M 2.4511719,2.1640625 C 2.3989796,2.1983442 2.3503838,2.2380538 2.305664,2.28125 2.3503956,2.2377345 2.3988718,2.1985631 2.4511719,2.1640625 Z M 2.305664,2.28125 C 2.2157158,2.368134 2.1431307,2.4723482 2.0908203,2.5878906 2.1427474,2.4722558 2.2162009,2.3682811 2.305664,2.28125 Z M 2.0908203,2.5878906 c -0.05238,0.115696 -0.082199,0.2424493 -0.086914,0.3769532 0.00471,-0.1342976 0.034987,-0.2613183 0.086914,-0.3769532 z M 2.0039063,2.9648438 C 2.0034874,2.9767932 2,2.9879449 2,3 L 2,3.071289 C 2,3.028264 2.0035,3.005255 2.0039063,2.9648438 Z"/>
 <rect style="opacity:0.2" width="6" height="1" x="6.5" y="18.5"/>
 <rect style="opacity:0.2" width="6" height="1" x="6.5" y="5.5"/>
 <path style="fill:#858585" d="M 3,2 C 2.4580551,2 2.0227375,2.4276534 2.0039063,2.9648438 2.0034977,3.0052547 2,3.0282642 2,3.071289 L 2,20.928711 2,21 c 0,0.554 0.446,1 1,1 L 3.0703125,22 8,22 l 0,-3 4.540039,0 0,-1 L 8,18 8,6 l 4.540039,0 0,-1 L 8,5 8,2 3.0703125,2 Z"/>
 <path style="opacity:0.1;fill:#ffffff" d="M 2,3.5 2,3 C 2,2.446 2.446,2 3,2 l 18,0 c 0.554,0 1,0.446 1,1 l 0,0.5 c 0,-0.554 -0.446,-1 -1,-1 l -18,0 c -0.554,0 -1,0.446 -1,1 z"/>
 <path style="opacity:0.2" d="m 4,3.5 0,2 2,0 0,-2 z m 0,4 0,2 2,0 0,-2 z m 0,4 0,2 2,0 0,-2 z m 0,4 0,2 2,0 0,-2 z m 0,4 0,2 2,0 0,-2 z"/>
 <path style="fill:#ffffff" d="M 4,3 4,5 6,5 6,3 Z M 4,7 4,9 6,9 6,7 Z m 0,4 0,2 2,0 0,-2 z m 0,4 0,2 2,0 0,-2 z m 0,4 0,2 2,0 0,-2 z"/>
 <path style="fill-rule:evenodd" d="m 21.999738,12.425446 c -2.032027,1.091373 -4.051576,1.78629 -5.797915,2.232114 -0.07239,0.02174 -0.153358,0.0498 -0.223211,0.06975 -2.292009,0.654612 -3.910384,2.911513 -3.910384,2.911513 l -0.126951,1.134193 c 0.205672,0.08944 2.131774,0.878921 4.688135,0.0028 2.565002,-0.879096 5.112477,-4.338138 5.370326,-4.694414 z"/>
 <path style="fill-rule:evenodd" d="m 18.901983,15.567844 -0.207168,1.372749 -1.016309,-0.718461 -0.04813,1.595961 -1.334385,-0.941673 -0.191125,1.77174 -1.445293,-1.245101 -0.413639,1.452967 -1.143958,-1.325318 -0.682887,1.133495 -0.588023,-1.356706 -0.504318,1.019797 c 0.06261,0.06683 0.127468,0.124098 0.191125,0.186939 0.15893,0.12319 0.34528,0.22949 0.34528,0.22949 0,0 2.065094,0.957845 4.76626,0.03209 1.370231,-0.469616 2.723521,-1.67039 3.737395,-2.746197 -0.03898,-0.01529 -0.07203,-0.03298 -0.114396,-0.04673 z"/>
 <ellipse style="opacity:0.2" cx="18.472" cy="9.4" rx="1.371" ry="1.377"/>
 <ellipse style="opacity:0.2" cx="17.843" cy="8.768" rx=".337" ry=".339"/>
 <path style="fill:#3f3f3f;fill-rule:evenodd" d="m 22,11.968567 c -2.032027,1.091372 -4.051838,1.786289 -5.798177,2.232113 -0.07239,0.02174 -0.153358,0.0498 -0.223211,0.06975 -2.292009,0.654613 -3.910384,3.011346 -3.910384,3.011346 l -0.126951,1.134193 c 0.205672,0.08944 2.131774,0.878921 4.688135,0.0028 C 19.194414,17.539676 21.742151,14.406276 22,14.05 Z"/>
 <path style="opacity:0.2;fill-rule:evenodd" d="m 19.492795,13.585214 c 0,0 -0.02777,0.0041 -0.02791,0.0042 -4.96489,0.910437 -8.475753,1.302502 -8.475753,1.302502 0,0 -1.595191,0.514287 -3.018237,0.211935 l 1.4229725,2.068845 0.449213,-1.286953 0.9891055,1.422275 0.696141,-1.467614 1.572942,1.557596 0.562214,-1.782901 1.48296,1.422275 0.719159,-1.941241 1.12373,1.218594 0.696141,-1.782901 1.236033,0.857272 0.539194,-1.70761 z"/>
 <path style="opacity:0.2" d="M 19.838867,2.500399 C 19.056516,2.7541631 10.534128,5.6951495 7.221199,7.467196 3.7607116,9.3181685 3.8499297,9.9944985 4.2544023,10.987704 c 0.4044728,0.993204 1.4831237,1.671325 2.1123047,3.161133 0.6291775,1.489805 5.123047,1.351562 5.123047,1.351562 0,0 4.968228,0.0449 10.510246,-2.93164 l 0,-9.06836 c 0,-0.554 -0.446,-1 -1,-1 z m 2.161133,12 c 0,0 -4.325659,4.872262 -8.532226,5 -0.894666,0.01539 -1.684307,-0.267284 -2.141602,-1.029297 0,0 -0.359405,0.05613 -0.291992,0.552734 C 11.378846,20.784628 14.34786,21.39027 15.074219,21.4 16.715493,21.3952 18.967612,21.011939 22,19.616797 Z"/>
 <path style="fill:#ffffff;fill-rule:evenodd" d="m 19.492795,13.085363 c 0,0 -0.02777,0.0042 -0.02791,0.0042 C 14.5,14 10.989137,14.392065 10.989137,14.392065 c 0,0 -1.595191,0.514287 -3.018237,0.211935 l 1.4229725,2.068845 0.449213,-1.286953 0.9891055,1.422275 0.696141,-1.467614 1.572942,1.557596 0.562214,-1.782901 1.48296,1.422275 0.719159,-1.941241 1.12373,1.218595 0.696141,-1.782901 1.236033,0.857271 0.539194,-1.70761 z"/>
 <path style="fill:#ffffff;fill-rule:evenodd" d="m 18.901983,15.210796 -0.207168,1.37275 -1.016309,-0.718462 -0.04813,1.595962 -1.334385,-0.941673 -0.191125,1.77174 -1.445293,-1.245101 -0.413639,1.452967 -1.143958,-1.325318 -0.682887,1.133495 -0.588023,-1.356706 -0.504318,1.019797 c 0.06261,0.06683 -0.160835,0.412401 -0.09718,0.475242 0.15893,0.12319 0.05698,0.43542 0.05698,0.43542 0,0 2.930003,1.081405 5.631169,0.155644 1.370231,-0.469616 2.723521,-2.246997 3.737395,-3.322804 -0.03898,-0.0153 -0.360334,-0.07417 -0.402699,-0.08792 z"/>
 <path style="fill:#e7464c" d="M 19.838867,2 C 19.056516,2.2537641 10.534128,5.1947505 7.221199,6.966797 3.7607116,8.8177695 3.8499297,9.4940995 4.2544023,10.487305 4.6588751,11.480509 5.737526,12.15863 6.366707,13.648438 6.9958845,15.138243 11.489754,15 11.489754,15 c 0,0 4.968228,0.0449 10.510246,-2.93164 L 22,3 C 22,2.446 21.554,2 21,2 Z M 22,14 c 0,0 -4.325659,4.872262 -8.532226,5 -0.894666,0.01539 -1.684307,-0.267284 -2.141602,-1.029297 0,0 -0.359405,0.05613 -0.291992,0.552734 0.344666,1.760792 3.31368,2.366434 4.040039,2.376164 C 16.715493,20.894801 18.967612,20.51154 22,19.116398 Z"/>
 <circle style="fill:#3f3f3f" cx="18.5" cy="9.5" r="1.5"/>
 <circle style="fill:#f8fcf9" cx="18" cy="9.5" r=".5"/>
 <path style="opacity:0.1;fill:#ffffff" d="M 19.838867,2 C 19.056516,2.2537641 10.534128,5.1947505 7.221199,6.966797 4.3932842,8.479414 3.9462214,9.2081145 4.094246,9.9658205 4.2499829,9.3529035 5.0086908,8.6502405 7.221199,7.466797 10.534128,5.6947505 19.056516,2.7537641 19.838867,2.5 L 21,2.5 c 0.554,0 1,0.446 1,1 L 22,3 C 22,2.446 21.554,2 21,2 Z"/>
</svg>
